svg/Tango/emotes/face-kiss.svg

<?xml version="1.0" encoding="UTF-8" standalone="no"?>
<!-- Created with Inkscape (http://www.inkscape.org/) -->
<svg
   xmlns:dc="http://purl.org/dc/elements/1.1/"
   xmlns:cc="http://creativecommons.org/ns#"
   xmlns:rdf="http://www.w3.org/1999/02/22-rdf-syntax-ns#"
   xmlns:svg="http://www.w3.org/2000/svg"
   xmlns="http://www.w3.org/2000/svg"
   xmlns:xlink="http://www.w3.org/1999/xlink"
   xmlns:sodipodi="http://sodipodi.sourceforge.net/DTD/sodipodi-0.dtd"
   xmlns:inkscape="http://www.inkscape.org/namespaces/inkscape"
   width="48px"
   height="48px"
   id="svg4376"
   sodipodi:version="0.32"
   inkscape:version="0.46"
   sodipodi:docbase="/home/jimmac/src/cvs/tango-icon-theme/scalable/emotes"
   sodipodi:docname="face-kiss.svg"
   inkscape:output_extension="org.inkscape.output.svg.inkscape">
  <defs
     id="defs3">
    <inkscape:perspective
       sodipodi:type="inkscape:persp3d"
       inkscape:vp_x="0 : 24 : 1"
       inkscape:vp_y="0 : 1000 : 0"
       inkscape:vp_z="48 : 24 : 1"
       inkscape:persp3d-origin="24 : 16 : 1"
       id="perspective48" />
    <linearGradient
       id="linearGradient3287">
      <stop
         id="stop3289"
         offset="0"
         style="stop-color:#fa9292;stop-opacity:1" />
      <stop
         id="stop3291"
         offset="1"
         style="stop-color:#cc0000" />
    </linearGradient>
    <linearGradient
       inkscape:collect="always"
       id="linearGradient3076">
      <stop
         style="stop-color:#000000;stop-opacity:1;"
         offset="0"
         id="stop3078" />
      <stop
         style="stop-color:#000000;stop-opacity:0;"
         offset="1"
         id="stop3080" />
    </linearGradient>
    <linearGradient
       id="linearGradient2349">
      <stop
         style="stop-color:#ef2929"
         offset="0"
         id="stop2351" />
      <stop
         style="stop-color:#ef2929;stop-opacity:0;"
         offset="1"
         id="stop2353" />
    </linearGradient>
    <linearGradient
       id="linearGradient2319">
      <stop
         style="stop-color:#ffffff;stop-opacity:1"
         offset="0"
         id="stop2321" />
      <stop
         style="stop-color:#cc0000;stop-opacity:0;"
         offset="1"
         id="stop2323" />
    </linearGradient>
    <linearGradient
       id="linearGradient3110">
      <stop
         style="stop-color:#fcc2c2;stop-opacity:1"
         offset="0"
         id="stop3112" />
      <stop
         style="stop-color:#cc0000"
         offset="1"
         id="stop3114" />
    </linearGradient>
    <linearGradient
       id="linearGradient3290">
      <stop
         style="stop-color:#fffcde;stop-opacity:1.0000000;"
         offset="0.0000000"
         id="stop3292" />
      <stop
         id="stop3294"
         offset="0.64485979"
         style="stop-color:#f6e76a;stop-opacity:1.0000000;" />
      <stop
         style="stop-color:#ffb738;stop-opacity:1.0000000;"
         offset="1.0000000"
         id="stop3296" />
    </linearGradient>
    <linearGradient
       inkscape:collect="always"
       id="linearGradient4565">
      <stop
         style="stop-color:#000000;stop-opacity:1;"
         offset="0"
         id="stop4567" />
      <stop
         style="stop-color:#000000;stop-opacity:0;"
         offset="1"
         id="stop4569" />
    </linearGradient>
    <radialGradient
       inkscape:collect="always"
       xlink:href="#linearGradient4565"
       id="radialGradient1360"
       gradientUnits="userSpaceOnUse"
       gradientTransform="matrix(1.000000,0.000000,0.000000,0.333333,0.000000,25.71429)"
       cx="24.714285"
       cy="38.571430"
       fx="24.714285"
       fy="38.571430"
       r="19.714285" />
    <radialGradient
       inkscape:collect="always"
       xlink:href="#linearGradient3290"
       id="radialGradient1362"
       gradientUnits="userSpaceOnUse"
       cx="29.288071"
       cy="15.720984"
       fx="29.158466"
       fy="15.755712"
       r="8.9020796" />
    <radialGradient
       inkscape:collect="always"
       xlink:href="#linearGradient3287"
       id="radialGradient2303"
       gradientUnits="userSpaceOnUse"
       gradientTransform="matrix(5.377271e-3,-0.373242,0.791975,1.141123e-2,1.832141,36.92856)"
       cx="27.643423"
       cy="29.13448"
       fx="27.643423"
       fy="29.13448"
       r="7.75" />
    <radialGradient
       inkscape:collect="always"
       xlink:href="#linearGradient3110"
       id="radialGradient3056"
       gradientUnits="userSpaceOnUse"
       gradientTransform="matrix(-5.343385e-7,-0.317037,0.972031,-4.735123e-7,0.99978,36.47238)"
       cx="47.651241"
       cy="24.283606"
       fx="47.651241"
       fy="24.283606"
       r="7.75" />
    <radialGradient
       inkscape:collect="always"
       xlink:href="#linearGradient3076"
       id="radialGradient3082"
       cx="24.319336"
       cy="36.861725"
       fx="24.319336"
       fy="36.861725"
       r="8.7498105"
       gradientTransform="matrix(1.353561,5.943389e-8,-6.380732e-8,1.453164,-8.598368,-19.22848)"
       gradientUnits="userSpaceOnUse" />
  </defs>
  <sodipodi:namedview
     fill="#ef2929"
     id="base"
     pagecolor="#ffffff"
     bordercolor="#666666"
     borderopacity="0.19607843"
     inkscape:pageopacity="0.0"
     inkscape:pageshadow="2"
     inkscape:zoom="5.6568542"
     inkscape:cx="28.085084"
     inkscape:cy="25.967717"
     inkscape:current-layer="layer1"
     showgrid="false"
     inkscape:grid-bbox="false"
     inkscape:document-units="px"
     inkscape:showpageshadow="false"
     inkscape:window-width="929"
     inkscape:window-height="818"
     inkscape:window-x="505"
     inkscape:window-y="30"
     stroke="#ef2929"
     inkscape:grid-points="true"
     showguides="true"
     inkscape:guide-bbox="true">
    <inkscape:grid
       id="GridFromPre046Settings"
       type="xygrid"
       originx="0px"
       originy="0px"
       spacingx="0.5px"
       spacingy="0.5px"
       color="#0000ff"
       empcolor="#0000ff"
       opacity="0.2"
       empopacity="0.4"
       empspacing="2" />
  </sodipodi:namedview>
  <metadata
     id="metadata4">
    <rdf:RDF>
      <cc:Work
         rdf:about="">
        <dc:format>image/svg+xml</dc:format>
        <dc:type
           rdf:resource="http://purl.org/dc/dcmitype/StillImage" />
        <dc:title>Face - Kiss</dc:title>
        <dc:subject>
          <rdf:Bag>
            <rdf:li>emoticon</rdf:li>
            <rdf:li>emote</rdf:li>
            <rdf:li>smiley</rdf:li>
            <rdf:li>kiss</rdf:li>
            <rdf:li>:-*</rdf:li>
            <rdf:li>:*</rdf:li>
          </rdf:Bag>
        </dc:subject>
        <cc:license
           rdf:resource="http://creativecommons.org/licenses/publicdomain/" />
        <dc:creator>
          <cc:Agent>
            <dc:title>Jakub Steiner</dc:title>
          </cc:Agent>
        </dc:creator>
        <dc:source>http://jimmac.musichall.cz</dc:source>
        <dc:contributor>
          <cc:Agent>
            <dc:title>Lapo Calamandrei</dc:title>
          </cc:Agent>
        </dc:contributor>
      </cc:Work>
      <cc:License
         rdf:about="http://creativecommons.org/licenses/publicdomain/">
        <cc:permits
           rdf:resource="http://creativecommons.org/ns#Reproduction" />
        <cc:permits
           rdf:resource="http://creativecommons.org/ns#Distribution" />
        <cc:permits
           rdf:resource="http://creativecommons.org/ns#DerivativeWorks" />
      </cc:License>
    </rdf:RDF>
  </metadata>
  <g
     id="layer1"
     inkscape:label="Layer 1"
     inkscape:groupmode="layer">
    <path
       sodipodi:type="arc"
       style="opacity:0.27058824;color:#000000;fill:url(#radialGradient1360);fill-opacity:1.0000000;fill-rule:evenodd;stroke:none;stroke-width:0.40487173;stroke-linecap:round;stroke-linejoin:round;marker:none;marker-start:none;marker-mid:none;marker-end:none;stroke-miterlimit:4.0000000;stroke-dasharray:none;stroke-dashoffset:0.0000000;stroke-opacity:1.0000000;visibility:visible;display:inline;overflow:visible"
       id="path4563"
       sodipodi:cx="24.714285"
       sodipodi:cy="38.571430"
       sodipodi:rx="19.714285"
       sodipodi:ry="6.5714288"
       d="M 44.428570 38.571430 A 19.714285 6.5714288 0 1 1  5.0000000,38.571430 A 19.714285 6.5714288 0 1 1  44.428570 38.571430 z" />
    <path
       sodipodi:type="arc"
       style="opacity:1;color:#000000;fill:url(#radialGradient1362);fill-opacity:1.0000000;fill-rule:evenodd;stroke:#9c8c0a;stroke-width:0.48004404;stroke-linecap:round;stroke-linejoin:round;marker:none;marker-start:none;marker-mid:none;marker-end:none;stroke-miterlimit:4.0000000;stroke-dasharray:none;stroke-dashoffset:0.0000000;stroke-opacity:1.0000000;visibility:visible;display:inline;overflow:visible"
       id="path4320"
       sodipodi:cx="31.112698"
       sodipodi:cy="19.008621"
       sodipodi:rx="8.6620579"
       sodipodi:ry="8.6620579"
       d="M 39.774755 19.008621 A 8.6620579 8.6620579 0 1 1  22.450640,19.008621 A 8.6620579 8.6620579 0 1 1  39.774755 19.008621 z"
       transform="matrix(2.083142,0.000000,0.000000,2.083142,-40.54715,-16.49224)" />
    <path
       d="M 39.774755 19.008621 A 8.6620579 8.6620579 0 1 1  22.450640,19.008621 A 8.6620579 8.6620579 0 1 1  39.774755 19.008621 z"
       sodipodi:ry="8.6620579"
       sodipodi:rx="8.6620579"
       sodipodi:cy="19.008621"
       sodipodi:cx="31.112698"
       id="path4322"
       style="opacity:0.67721522;color:#000000;fill:none;fill-opacity:1.0000000;fill-rule:evenodd;stroke:#ffffff;stroke-width:0.50510627;stroke-linecap:round;stroke-linejoin:round;marker:none;marker-start:none;marker-mid:none;marker-end:none;stroke-miterlimit:4.0000000;stroke-dasharray:none;stroke-dashoffset:0.0000000;stroke-opacity:1.0000000;visibility:visible;display:inline;overflow:visible"
       sodipodi:type="arc"
       transform="matrix(1.979782,0.000000,0.000000,1.979782,-37.33128,-14.52746)" />
    <path
       sodipodi:type="arc"
       style="fill:none;fill-opacity:1.0000000;stroke:#555753;stroke-width:1.0000000;stroke-linecap:butt;stroke-miterlimit:4.0000000;stroke-dasharray:none;stroke-dashoffset:0.0000000;stroke-opacity:1.0000000"
       id="path1364"
       sodipodi:cx="-3.8125000"
       sodipodi:cy="1.8750000"
       sodipodi:rx="2.9375000"
       sodipodi:ry="2.8750000"
       d="M -0.87500000,1.8750000 A 2.9375000,2.8750000 0 0 1 -6.3564497,3.3124999"
       sodipodi:start="0.0000000"
       sodipodi:end="2.6179939"
       sodipodi:open="true"
       transform="matrix(-0.965926,-0.258819,0.258819,-0.965926,24.53442,17.20131)" />
    <path
       transform="matrix(-0.965926,-0.258819,0.258819,-0.965926,15.78442,17.20131)"
       sodipodi:open="true"
       sodipodi:end="2.6179939"
       sodipodi:start="0.0000000"
       d="M -0.87500000,1.8750000 A 2.9375000,2.8750000 0 0 1 -6.3564497,3.3124999"
       sodipodi:ry="2.8750000"
       sodipodi:rx="2.9375000"
       sodipodi:cy="1.8750000"
       sodipodi:cx="-3.8125000"
       id="path2094"
       style="fill:none;fill-opacity:1.0000000;stroke:#555753;stroke-width:1.0000000;stroke-linecap:butt;stroke-miterlimit:4.0000000;stroke-dasharray:none;stroke-dashoffset:0.0000000;stroke-opacity:1.0000000"
       sodipodi:type="arc" />
    <path
       inkscape:r_cy="true"
       inkscape:r_cx="true"
       sodipodi:nodetypes="csssccc"
       id="path3066"
       d="M 15.569526,26.222096 C 15.569526,26.222096 20.308098,24.892973 21.988095,24.873536 C 23.668091,24.854099 22.289512,26.144342 24.507945,26.118675 C 26.663515,26.093735 25.653861,25.056586 27.255269,25.038057 C 28.856676,25.019529 33.069147,26.019619 33.069147,26.019619 C 30.7796,30.353035 32.883855,35.670178 24.488994,35.670178 C 15.330963,35.670178 18.590936,29.30734 15.569526,26.222096 z "
       style="fill:url(#radialGradient3082);fill-opacity:1.0;fill-rule:evenodd;stroke:none;stroke-width:1.00000048;stroke-linecap:butt;stroke-linejoin:miter;stroke-miterlimit:4;stroke-dasharray:none;stroke-opacity:1;opacity:0.20555556" />
    <path
       style="opacity:1;color:#000000;fill:url(#radialGradient3056);fill-opacity:1;fill-rule:evenodd;stroke:#a40000;stroke-width:0.9999997;stroke-linecap:butt;stroke-linejoin:miter;marker:none;marker-start:none;marker-mid:none;marker-end:none;stroke-miterlimit:4;stroke-dasharray:none;stroke-dashoffset:0;stroke-opacity:1;visibility:visible;display:inline;overflow:visible"
       d="M 16.110241,26.303277 C 16.110241,26.303277 32.597941,26.490777 32.597941,26.490777 C 30.217201,25 29.946346,21.213388 28.154513,21 C 25.205629,22.104671 24.054215,22.193885 21.141375,21 C 19.287043,21.489277 17.994148,25.144057 16.110241,26.303277 z "
       id="path3047"
       inkscape:r_cx="true"
       inkscape:r_cy="true"
       sodipodi:nodetypes="ccccc" />
    <path
       style="fill:url(#radialGradient2303);fill-opacity:1;fill-rule:evenodd;stroke:#a40000;stroke-width:1.00000048;stroke-linecap:butt;stroke-linejoin:miter;stroke-miterlimit:4;stroke-dasharray:none;stroke-opacity:1"
       d="M 17.160516,26.255438 C 17.160516,26.255438 21.109269,25.24186 22.509246,25.227037 C 23.909222,25.212215 25,26.5 25,26.5 C 25,26.5 25.564007,25.36663 26.898494,25.3525 C 28.232981,25.33837 31.743322,26.101031 31.743322,26.101031 C 29.835394,29.405659 31.588914,33.460469 24.593299,33.460469 C 16.961716,33.460469 19.678321,28.60822 17.160516,26.255438 z "
       id="path1360"
       sodipodi:nodetypes="cscsccc"
       inkscape:r_cx="true"
       inkscape:r_cy="true" />
    <path
       transform="matrix(-0.314376,0.949299,0.949299,0.314376,29.0954,15.15051)"
       sodipodi:open="true"
       sodipodi:end="1.7329598"
       sodipodi:start="0"
       d="M -0.875,1.875 A 2.9375,2.875 0 0 1 -4.2867702,4.7122808"
       sodipodi:ry="2.875"
       sodipodi:rx="2.9375"
       sodipodi:cy="1.875"
       sodipodi:cx="-3.8125"
       id="path3092"
       style="fill:none;fill-opacity:1;stroke:#555753;stroke-width:1;stroke-linecap:butt;stroke-miterlimit:4;stroke-dasharray:none;stroke-dashoffset:0;stroke-opacity:1"
       sodipodi:type="arc"
       inkscape:r_cx="true"
       inkscape:r_cy="true" />
    <path
       inkscape:r_cy="true"
       inkscape:r_cx="true"
       sodipodi:type="arc"
       style="fill:none;fill-opacity:1;stroke:#555753;stroke-width:1.29058444;stroke-linecap:butt;stroke-miterlimit:4;stroke-dasharray:none;stroke-dashoffset:0;stroke-opacity:1"
       id="path3094"
       sodipodi:cx="-3.8125"
       sodipodi:cy="1.875"
       sodipodi:rx="2.9375"
       sodipodi:ry="2.875"
       d="M -0.875,1.875 A 2.9375,2.875 0 0 1 -4.1789771,4.7275381"
       sodipodi:start="0"
       sodipodi:end="1.6958804"
       sodipodi:open="true"
       transform="matrix(-0.243592,0.735557,0.735557,0.243592,28.13302,13.86608)" />
    <path
       transform="matrix(-0.243592,0.735557,0.735557,0.243592,25.63302,13.61608)"
       sodipodi:open="true"
       sodipodi:end="1.7544278"
       sodipodi:start="0.43025654"
       d="M -1.1427273,3.0741739 A 2.9375,2.875 0 0 1 -4.348891,4.7016628"
       sodipodi:ry="2.875"
       sodipodi:rx="2.9375"
       sodipodi:cy="1.875"
       sodipodi:cx="-3.8125"
       id="path3096"
       style="fill:none;fill-opacity:1;stroke:#555753;stroke-width:1.29058444;stroke-linecap:butt;stroke-miterlimit:4;stroke-dasharray:none;stroke-dashoffset:0;stroke-opacity:1"
       sodipodi:type="arc"
       inkscape:r_cx="true"
       inkscape:r_cy="true" />
    <path
       inkscape:r_cy="true"
       inkscape:r_cx="true"
       sodipodi:type="arc"
       style="fill:none;fill-opacity:1;stroke:#555753;stroke-width:1;stroke-linecap:butt;stroke-miterlimit:4;stroke-dasharray:none;stroke-dashoffset:0;stroke-opacity:1"
       id="path3098"
       sodipodi:cx="-3.8125"
       sodipodi:cy="1.875"
       sodipodi:rx="2.9375"
       sodipodi:ry="2.875"
       d="M -0.875,1.875 A 2.9375,2.875 0 0 1 -4.2867702,4.7122808"
       sodipodi:start="0"
       sodipodi:end="1.7329598"
       sodipodi:open="true"
       transform="matrix(0.314376,0.949299,-0.949299,0.314376,19.43113,15.15051)" />
    <path
       transform="matrix(0.243592,0.735557,-0.735557,0.243592,20.39351,13.86608)"
       sodipodi:open="true"
       sodipodi:end="1.6958804"
       sodipodi:start="0"
       d="M -0.875,1.875 A 2.9375,2.875 0 0 1 -4.1789771,4.7275381"
       sodipodi:ry="2.875"
       sodipodi:rx="2.9375"
       sodipodi:cy="1.875"
       sodipodi:cx="-3.8125"
       id="path3100"
       style="fill:none;fill-opacity:1;stroke:#555753;stroke-width:1.29058444;stroke-linecap:butt;stroke-miterlimit:4;stroke-dasharray:none;stroke-dashoffset:0;stroke-opacity:1"
       sodipodi:type="arc"
       inkscape:r_cx="true"
       inkscape:r_cy="true" />
    <path
       inkscape:r_cy="true"
       inkscape:r_cx="true"
       sodipodi:type="arc"
       style="fill:none;fill-opacity:1;stroke:#555753;stroke-width:1.29058444;stroke-linecap:butt;stroke-miterlimit:4;stroke-dasharray:none;stroke-dashoffset:0;stroke-opacity:1"
       id="path3102"
       sodipodi:cx="-3.8125"
       sodipodi:cy="1.875"
       sodipodi:rx="2.9375"
       sodipodi:ry="2.875"
       d="M -1.1427273,3.0741739 A 2.9375,2.875 0 0 1 -4.348891,4.7016628"
       sodipodi:start="0.43025654"
       sodipodi:end="1.7544278"
       sodipodi:open="true"
       transform="matrix(0.243592,0.735557,-0.735557,0.243592,22.89351,13.61608)" />
  </g>
</svg>

<svg xmlns="http://www.w3.org/2000/svg" xmlns:xlink="http://www.w3.org/1999/xlink" viewBox="0 0 48 48"><defs><linearGradient id="4"><stop/><stop offset="1" stop-opacity="0"/></linearGradient><radialGradient id="8" gradientUnits="userSpaceOnUse" gradientTransform="matrix(0-.31704.97203 0 1 36.472)" cx="47.651" cy="24.284" r="7.75"><stop stop-color="#fcc2c2"/><stop offset="1" stop-color="#c00"/></radialGradient><radialGradient xlink:href="#4" id="9" cx="24.319" cy="36.862" r="8.75" gradientTransform="matrix(1.35356 0 0 1.45316-8.598-19.228)" gradientUnits="userSpaceOnUse"/><radialGradient id="7" gradientUnits="userSpaceOnUse" gradientTransform="matrix(.00538-.37324.79197.01141 1.832 36.929)" cx="27.643" cy="29.13" r="7.75"><stop stop-color="#fa9292"/><stop offset="1" stop-color="#c00"/></radialGradient><radialGradient xlink:href="#4" id="5" gradientUnits="userSpaceOnUse" gradientTransform="matrix(1 0 0 .33333 0 25.714)" cx="24.714" cy="38.571" r="19.714"/><radialGradient id="6" gradientUnits="userSpaceOnUse" cx="29.29" cy="15.721" fx="29.16" fy="15.756" r="8.902"><stop stop-color="#fffcde"/><stop offset=".645" stop-color="#f6e76a"/><stop offset="1" stop-color="#ffb738"/></radialGradient></defs><g fill-rule="evenodd" color="#000"><path d="M44.42857 38.57143A19.714285 6.571429 0 1 1 5 38.57143 19.714285 6.571429 0 1 1 44.42857 38.57143" opacity=".271" fill="url(#5)"/><g stroke-linejoin="round" stroke-linecap="round"><path d="M39.774755 19.00862A8.662058 8.662058 0 1 1 22.45064 19.00862 8.662058 8.662058 0 1 1 39.774755 19.00862z" transform="matrix(2.08314 0 0 2.08314-40.547-16.492)" stroke-width=".48" fill="url(#6)" stroke="#9c8c0a"/><path d="M39.774755 19.00862A8.662058 8.662058 0 1 1 22.45064 19.00862 8.662058 8.662058 0 1 1 39.774755 19.00862z" transform="matrix(1.97978 0 0 1.97978-37.33-14.527)" opacity=".677" stroke-width=".505" fill="none" stroke="#fff"/></g></g><path d="M-.875 1.875A2.9375 2.875 0 0 1 -6.35645 3.3125" transform="matrix(-.96593-.25882.25882-.96593 24.534 17.201)" fill="none" stroke="#555753" id="0"/><use transform="translate(-8.75)" xlink:href="#0"/><g fill-rule="evenodd"><path d="m15.57 26.22c0 0 4.739-1.329 6.419-1.349 1.68-.019.301 1.271 2.52 1.245 2.156-.025 1.146-1.062 2.747-1.081 1.601-.019 5.814.982 5.814.982-2.29 4.333-.185 9.651-8.58 9.651-9.158 0-5.898-6.363-8.919-9.448" opacity=".206" fill="url(#9)"/><g stroke="#a40000"><path d="m16.11 26.303c0 0 16.488.188 16.488.188-2.381-1.491-2.652-5.277-4.443-5.491-2.949 1.105-4.1 1.194-7.01 0-1.854.489-3.147 4.144-5.03 5.303z" color="#000" fill="url(#8)"/><path d="m17.16 26.26c0 0 3.949-1.014 5.349-1.028 1.4-.015 2.491 1.273 2.491 1.273 0 0 .564-1.133 1.898-1.148 1.334-.014 4.845.749 4.845.749-1.908 3.305-.154 7.359-7.15 7.359-7.632 0-4.915-4.852-7.433-7.205z" fill="url(#7)"/></g></g><path transform="matrix(-.31438.9493.9493.31438 29.1 15.15)" d="M-.875 1.875A2.9375 2.875 0 0 1 -4.28677 4.712281" fill="none" stroke="#555753" id="1"/><path d="M-.875 1.875A2.9375 2.875 0 0 1 -4.178977 4.727538" transform="matrix(-.24359.73556.73556.24359 28.13 13.866)" fill="none" stroke="#555753" stroke-width="1.291" id="2"/><path transform="matrix(-.24359.73556.73556.24359 25.633 13.616)" d="M-1.142727 3.074174A2.9375 2.875 0 0 1 -4.348891 4.701663" fill="none" stroke="#555753" stroke-width="1.291" id="3"/><g transform="matrix(-1 0 0 1 48.53 0)"><use xlink:href="#1"/><use xlink:href="#2"/><use xlink:href="#3"/></g></svg>
